assets/cards-tab/Asset/Alert.svg

<svg width="16" height="16" viewBox="0 0 16 16" fill="none" xmlns="http://www.w3.org/2000/svg">
<path d="M6.91261 2.64256C7.13059 2.24623 7.54704 2 7.99935 2C8.45166 2 8.86811 2.24623 9.08609 2.64256L13.5939 10.8386C14.1663 11.8793 14.4525 12.3997 14.4015 12.8253C14.357 13.1967 14.1586 13.5323 13.8546 13.7502C13.5063 14 12.9124 14 11.7246 14H4.27406C3.08629 14 2.4924 14 2.14406 13.7502C1.84011 13.5323 1.64168 13.1967 1.59718 12.8253C1.54619 12.3997 1.83239 11.8793 2.4048 10.8386L6.91261 2.64256Z" fill="white"/>
<path d="M7.99951 2C8.45173 2.00008 8.86848 2.24632 9.08642 2.64258L13.5942 10.8389C14.1664 11.8792 14.4528 12.3997 14.4019 12.8252C14.3574 13.1964 14.1587 13.532 13.855 13.75C13.5066 13.9998 12.9119 14 11.7241 14H4.27392C3.0862 14 2.49237 13.9998 2.14404 13.75C1.84012 13.532 1.64166 13.1965 1.59716 12.8252C1.54622 12.3996 1.83248 11.8794 2.40478 10.8389L6.91259 2.64258C7.13057 2.24626 7.5472 2 7.99951 2ZM7.99951 11.334C7.63142 11.334 7.3326 11.6319 7.33252 12C7.33252 12.3682 7.63136 12.6669 7.99951 12.667C8.3677 12.667 8.6665 12.3682 8.6665 12C8.66641 11.6319 8.36764 11.334 7.99951 11.334ZM7.99951 6C7.63142 6.00005 7.3326 6.25579 7.33252 6.57129V9.42871C7.3326 9.74421 7.63142 9.99995 7.99951 10C8.36749 9.99985 8.66544 9.74415 8.66552 9.42871V6.57129C8.66544 6.25585 8.36749 6.00015 7.99951 6Z" fill="#FF8189"/>
</svg>

<svg xmlns="http://www.w3.org/2000/svg" width="16" height="16" fill="none" viewBox="0 0 16 16"><path fill="#fff" d="M6.913 2.643a1.24 1.24 0 0 1 2.173 0l4.508 8.196c.572 1.04.859 1.56.808 1.986a1.33 1.33 0 0 1-.547.925c-.349.25-.943.25-2.13.25h-7.45c-1.189 0-1.783 0-2.13-.25a1.33 1.33 0 0 1-.548-.925c-.05-.425.235-.946.808-1.986z"/><path fill="#ff8189" d="M8 2c.452 0 .868.246 1.086.643l4.508 8.196c.572 1.04.859 1.56.808 1.986a1.33 1.33 0 0 1-.547.925c-.348.25-.943.25-2.13.25H4.273c-1.188 0-1.782 0-2.13-.25a1.33 1.33 0 0 1-.547-.925c-.05-.425.235-.946.808-1.986l4.508-8.196A1.24 1.24 0 0 1 8 2m0 9.334a.667.667 0 1 0-.001 1.333.667.667 0 0 0 0-1.333M8 6c-.369 0-.667.256-.667.571V9.43c0 .315.298.57.667.571.367 0 .665-.256.666-.571V6.57c0-.315-.299-.57-.666-.571"/></svg>
